!!!COM: Richard Strauss
!!!CNT: Deutscher
!!!TXO: Deutsche 
!!!OTL: "All mein Gedanken"...
!!!OPS: Opus 21
!!!ONM: No. 1
!!!LYR: Felix Dahn
!!!ENC: Brian Bice
!!!YOR: Lieder, Complete Edition, vol. 1
!!!ODT: 1888/
!!NB: Vocal melody and text only encoded.
**kern	**silbe
*clefG2	*
*k[f#c#g#d#]	*
*M2/4	*
=1	=1
{8g#	{All
16g#	mein
16a	Ge-
8b	-dan-
16g#	-ken,
16b	mein
=2	=2
8cc#	Herz
16a	und
16cc#	mein
4ee}	Sinn,}
=3	=3
*M3/4	*
{8ee	{da,
16dd#	wo
16ee	die
[4gg#	Lieb-
16.gg#]	|
32ff#	-ste
8ee	ist,
=4	=4
*M2/4	*
8b	wan-
16f#	-dern
16b	sie
8g#}	hin.}
8r	.
=5	=5
{8g#	{Gehn
16f#	ih-
16g#	-res
16b	We-
16a	-ges
8f#	trotz
=6	=6
8g#	Mau-
16e	-er
16c#	und
4a}	Tor,}
=7	=7
{8b	{da
16a#	ha2lt
16b	kein
16dd#	Rie-
16cc#	-gel,
8a#	kein
=8	=8
8b	Gra-
16g#	-ben
16e	nicht
4cc#}	vor,}
=9	=9
{8cc#	{gehn
16b#	wie
16cc#	die
16.ee	Wo2-
32dd#	-ge-
8cc#	-lein
=10	=10
8ff#	hoch
16dd#	durch
16cc#	die
4b}	Luft,}
=11	=11
{8b	{brau-
16b	-chen
16cc#	kein
16ddn	Bru2-
16dd#	-cken
16ee	u2-
16ee#	-ber
=12	=12
(16gg#	Was-
16ff#)	|
16een	-ser
16ddn	und
4cc#}	Kluft,}
=13	=13
{8cc#	{fin-
16b#	-den
16cc#	das
8ee	Sta2dt-
16dd#	lein
16cc#	und
=14	=14
8cc#	fin-
16b#	-den
16cc#	das
4ee}	Haus,}
=15	=15
{16ee	{fin-
16ddn	-den
8ccn	ihr
8b	Fen-
16a#	-ster
16cc#	aus
=16	=16
8ff#	al-
16.ee	-len
32ee	her-
8dd#}	-aus}
16r	.
{16b	{und
=17	=17
16b	klop-
16b	-fen
16r	.
16b	und
[4ddn	ru-
=18	=18
4ddn]	|
8b}	-fen:}
16.r	.
{32gg#	{mach
=19	=19
4.ff#	auf,
16gg#	lass
16gg#	uns
=20	=20
4.ff#	ein,
8ee	wir
=21	=21
8ee	kom-
16dd#	-men
16cc#	vom
([4ff#	Lieb-
=22	=22
8.ff#]	|
16ee)	|
8cc#}	-sten}
8r	.
=23	=23
16r	.
{16b	{und
([8gg#	gru2-
16gg#]	|
16ff#	|
16cc#	|
16ee	|
=24	=24
16b	|
16a	|
16cc#	|
16e	|
8g#)	|
16f#	-ssen
16b	dich
=25	=25
8e}	fein,}
16r	.
{16g#	{wir
8g#	kom-
16f#	-men
16g#	vom
=26	=26
8b	Lieb-
16a	-sten
16f#	und
8g#	gru2s-
16a	-sen
16b	dich
=27	=27
4cc#}	fein,}
8.r	.
{16a#	{mach
=28	=28
4dd#	auf,
16r	.
16a#	mach
[8dd#	auf,
=29	=29
8dd#]	|
16ff#	lass
16b	uns
4ee}	ein.}
*-	*-
